X:349
T: KOMM FEIN LIEBCHEN KOMM ANS FENSTER
N: B0411
O: Europa, Mitteleuropa, Deutschland
R: Liebes - Lied, Liebes - Lust
M: 6/8
L: 1/8
K: G
 | G2FG2F | G2AB2G |
d2^cd2c | d2z4 |
G2FG2F | G2AB2G |
c2Bc2d | e2z
g3 | gdBdcA | G2z4

@@@ Tune index: 2152
